X:1
T:Beati omnes qui timent dominum
T:Ivo de Vento
T:Source : Liber mottetorum 4 vocum---Monachij---A.Berg---1571. Editor : André Vierendeels (03/04/16).
T:Beati omnes qui timent dominum
T:©
T:©
T:©
T:©
T:©
T:©
T:©
T:©
T:©
C:Ivo de Vento
Z:©
%%score [ 1 2 3 4 ]
L:1/8
Q:1/4=94
M:2/2
K:F
V:1 treble-8 nm="Tenor 1" snm="T 1"
V:2 treble-8 nm="Tenor 2" snm="T 2"
V:3 treble-8 nm="Tenor 3" snm="T 3"
V:4 bass nm="Bass" snm="B"
V:1
 z8 | d6 G2- | G2 G2 c4 | B4 A2 A2 | d4 B2 B2 | f6 e2 | d6 d2 | ^c4 z4 | z2 G2 G2 F2 | %9
w: |Be- a-|* ti o-|* mnes qui|ti- ment, qui|ti- ment|Do- mi-|num,|qui am- bu-|
 G2 G2 G2 g2 | f8 | f4 z4 | z8 | B8 | c4 d4 | e3 e f2 d2 | B2 B2 z2 F2 | G2 G2 A3 A | B2 d2 GABc | %19
w: lant in vi- is|e-|jus,||la|bo- res|ma- nu- um tu-|a- rum, la-|bo- res ma- nu-|um tu- a- * * *|
 defd ed d2- | dc/B/ c2 d4- | d4 z2 B2 | f2 f4 f2 | f8 | f2 d2 defd | g6 g2 | ^f8 | z8 | z4 z2 A2 | %29
w: |* * * * rum,|_ qui-|a man- du-||bis. Be- a- * * *|* tus|es||et|
 d3 c B4 | G2 c4 A2 | A4 A2 A2- | A2 G4 F2 | G2 G2 d2 e2 | f2 f2 f3 e | d2 c2 A4 | A2 F2 G2 G2 | %37
w: be- ne ti-|bi e- rit,|u- xor tu-|* a sic-|ut vi- tis a-|bun- * * *|* dans, sic-|ut vi- tis a-|
 A4 B2 B2- | B2 B2 B2 A2 | F2 G2 c2 de | fgad f3 e/d/ | e4 d4 | z4 z2 G2 | G2 F2 B3 G | B2 A2 G4 | %45
w: bun dans in|_ la- te- ri-|bus do- mus tu- *||* ae,|fi-|li- i tu- *|* i, fi-|
 B2 A2 G3 A | BG A3 G G2- | G2 F2 G4 | z2 g2 g2 g2 | f4 d2 f2- | f2 e2 d4- | d4 ^c4 | d6 d2 | %53
w: li- i tu- *||* * i,|sic- ut no-|vel- le o-|* li- va-|* rum|in cir-|
 _e3 e d4 | z4 z2 G2- | G2 F2 B3 c | d8 | d8 |] z4 B4- | B2 AG A4 | B2 d3 c B2- | B2 AG A4 | %62
w: cu- i- tus|men-|* sae tu- *||ae.|Ec-||ce, ec- * *||
"^Secunda Pars" B2 d4 G2 | d3 d c2 _e2 | d4 c4 | d4 f4 | f2 e2 f3 f | d4 z2 d2 | d2 c2 d3 d | %69
w: ce sic be-|ne- di- ce- tur|ho- *|mo qui|ti- met Do- mi-|num, qui|ti- met Do- mi-|
 d4 d4 | d2 c2 d3 d | d4 z4 | z2 B2 B2 A2 | B2 G2 d4 | z2 G2 G2 F2 | G3 A BcdA | B2 AG A2 A2 | %77
w: num, qui|ti- met Do- mi-|num,|qui ti- met|Do- mi- num,|qui ti- met|Do- * * * * *|* * * * mi-|
 B4 B3 B | _e2 e2 d4 | c4 d2 d2- | d2 d2 f4- | f2 e2 d4- | d4 ^c4 |[M:3/2]"^-natural" c4 d6 d2 | %84
w: num. Be- ne-|di- cat ti-|* bi Do-|* mi- nus|_ ex Sy-|* on,|et vi- de-|
 d4 e4 f4 | f4 f4 _e4 |[M:2/2] d2 d4 d2 | B2 A2 BG d2- | dc/B/ c2 d4 | a3 g f2 f2 | e4 f4 | z8 | %92
w: as bo- na|Ie- ru- sa-|lem o- mni-|bus di- e- * *|* * * * bus|vi- * * tae|tu- ae,||
 z8 | z8 | z2 A2 d3 c | B4 G3 G | A2 F3 F G2 | G2 d2 c4- | c4 A4 | =B6 B2 | c2 c2 B2 AG | A6 A2 | %102
w: ||et vi- de-|as fi- li-|os fi- li- o-|rum tu- o-|* rum|pa- cem|su- per Is- * *|* ra-|
 =B8 | z8 | z8 | G4 c3 B | A4 B3 A | G4 z4 | c3 c dcBG | g2 f4 f2 | _e4 d2 d2- | d2 d2 d4 | %112
w: el,|||et vi- de-|as fi- li-|os|fi- li- o- * * *|* rum tu-|o- rum pa-|cem _ su-|
 _e6 c2 | d6 d2 | d8 |] %115
w: * per|Is- ra-|el.|
V:2
 d8 | =B3 c d2 d2 | _e8 | d8 | B6 d2- | d2 c2 BA A2- | A2 GF G2 G2 | A2 A4 B2- | B2 c2 d4 | %9
w: Be-|a- * * ti|o-|mnes|qui ti-|* ment Do- * *|* * * * mi-|num, qui am-|* bu- lant|
 d4 _e2 e2 | d4 c4 | d8 | z8 | z8 | z2 F4 G2- | G2 A4 B2- | BG g4 f2 | B2 c2 d4 | d2 G2 Bcde | %19
w: in vi- is|e- *|jus,|||la- bo-|* res ma-|* * * nu-|um tu- a-|rum, tu- a- * * *|
 fg a2 g3 f | e4 f4- | f2 f2 f3 e | d2 d2 c4- | c4 d2 d2- | d2 f3 e d2- | d2 cB c3 c | d4 z4 | %27
w: |rum, qui-|* a man- *|* du- ca-|* bis. Be-|* a- * *|* * * * tus|es,|
 z4 z2 F2 | c3 B A4 | B4 G2 d2- | de f2 e2 d2- |"^-natural" dc/B/ c2 d4- | d4 z2 d2 | d2 d2 B2 c2 | %34
w: et|be- * *|* ne ti-|* * * bi e-|* * * * rit,|_ sic-|ut vi- tis a-|
 d4 A4 | z4 z2 d2 | d2 d2 B2 c2 | d4 d4 | z8 | z8 | z8 | z2 A2 B2 G2 | d3 c B4 | A4 z2 G2 | %44
w: bun- dans,|sic-|ut vi- tis a-|bun- dans,||||fi- li- i|tu- * *|i, fi-|
 G2 F2 B3 c | d4 d2 G2 | G2 F2 B4 | A4 d4 | d2 d2 _e4 | d2 d2 B2 AG | F2 A4 GF | G4 A2 A2- | %52
w: li- i tu- *|* i, fi-|li- i tu|i sic-|ut no- vel|le o- li- * *|* va- * *|* rum in|
 A2 A2 A3 B | c2 c2 B4 | d3 c B2 B2 | A4 G2 G2- | G2 F2 B4 | A8 |] d8 | d4 z2 d2- | dcBA Bc d2 | %61
w: _ cir- cu- *|* i- tu|men _ _ sae|tu- ae, men-|* sae tu-|ae.|Ec-|ce, ec-||
 d8 | z2 B2 B2 d2- | de f4 g2 | f2 f2 f4 | f4 z4 | z2 B2 B2 A2 | B2 G2 d4 | z2 G2 G2 F2 | %69
w: ce,|sic be- ne-|* * * di-|ce- tur ho-|mo|qui ti- met|Do- mi- num,|qui ti- met|
 G3 A BcdA | B2 AG A2 A2 | B4 f4 | f2 e2 f3 f | d4 z2 d2 | d2 c2 d3 d | d4 d4 | d2 c2 d3 d | %77
w: Do- * * * * *|* * * * mi-|num, qui|ti- met Do- mi-|num, qui|ti- met Do- mi-|num, qui|ti- met Do- mi-|
 d4 z2 g2- | g2 g2 f2 f2 | f4 f2 f2- | f2 f2 d2 d2 | c3 G BA A2- | AG/F/ G2 A4 |[M:3/2] A4 A6 A2 | %84
w: num. Be-|* ne- di- cat|ti- bi Do-|* mi- nus ex|Sy- * * * *|* * * * on,|et vi- de-|
 =B4 c4 d4 | d4 c4 c4 |[M:2/2] A4 B3 B | d2 d2 d4 | e4 f4 | f2 e3 d d2- |"^-natural" dc/B/ c2 d4 | %91
w: as bo- na|Ie- ru- sa-|lem o- mni-|bus di- e-|e- bus|vi- tae _ tu-|* * * * ae,|
 z8 | z8 | G4 c3 B | A4 B3 A | G4 z4 | c3 c dcBG | g2 f4 f2 | _e4 d2 d2- | d2 d2 d4 | _e6 c2 | %101
w: ||et vi- de-|as fi- li-|os|fi- li- o- * * *|* rum tu-|o- rum pa-|* cem su-|* per|
 d6 d2 | d8 | z8 | z8 | z8 | z2 A2 d3 c | B4 G3 G | A2 F3 F G2 | G2 d2 c4- | c4 A4 | =B6 B2 | %112
w: Is- ra-|el,||||et vi- de-|as fi- li-|os fi- li- o-|rum tu- o|_ rum|pa- cem|
 c2 c2 B2 AG | A6 A2 | =B8 |] %115
w: su- per Is- * *|* ra-|el.|
V:3
 z4 G4- | G4 =B4 | c4 G2 A2- |"^#" AG G3 F/E/ F2 | G2 G2 d3 c | B2 AG F2 A2 | D6 D2 | E4 F4 | %8
w: Be-|* a-|* ti o-||mnes qui ti- *|* * * * ment|Do- mi-|um, qui|
 G3 G A2 A2 | =B4 c2 c2- | cB B3 A/G/ A2 | B2 F4 G2- | G2 A2 B3 B | G2 F2 GA B2- | BA/G/ A2 B4 | %15
w: am- bu- lant in|vi- is e-||jus, la- bo-|* res ma- ni-|um tu- a- * *|* * * * rum,|
 z4 F4 | G4 A2 B2- | BA G4 F2 | GABc d3 c | B2 F2 G4 | A2 A4 B2 | A2 A2 d3 c | BF B4 AG | A4 B4 | %24
w: la-|bo- res ma-|* * * nu-|um _ _ _ _ _|_ tu- a-|rum, qui- a|man- du- ca- *||* bis.|
 A4 B4 | G6 G2 | A2 A2 d3 c | B2 d2 c2 B2 | AG G3 F/E/ F2 | G2 G2 d3 c | B2 A2 G2 F2 | E4 D2 F2 | %32
w: Be- *|a- tus,|et be- ne ti-|bi e- * *||rit, et be- *|* ne ti- bi|e- rit, u-|
 B3 A/G/ A2 A2 | B4 z2 A2 | A2 A2 F2 A2 | B2 AG FEFG | AF B3 A G2- | GF/E/ F2 G4 | d6 d2 | %39
w: xor _ _ _ tu-|a sic-|ut vi- tis a-|bun- * * * * * *||* * * * dans|in la-|
 d2 c2 A2 B2 | A2 AB cA d2- |"^-natural" dc/B/ c2 d2 B2 | B2 A2 d4- | d8 | d4 z2 G2 | G2 F2 B3 c | %46
w: te- ri- bus do-|mus tu- * * * *|* * * * ae, fi-|li- i tu-||i, fi-|li- i tu- *|
 d8 | d4 =B4 | =B2 B2 c4 | A4 F3 G | A2 A2 D4- | D4 E4 | ^F6 F2 | G3 G G2 B2- | B2 A2 d4 | %55
w: |i sic-|ut no- vel-|le o- *|* li va-|* rum,|in cir-|cu- i- tu men-|* sae tu-|
 d2 d3 c B2- | B2 A2 G4 | ^F8 |] z4 G4- | G2 FE F4 | G4 G4 | D4 D2 d2- | d2 G2 d2 B2 | B4 A2 c2- | %64
w: ae, men- * *|* sae tu-|ae.|Ec|_ _ _ _|ce, ec-|* ce sic|_ be- ne- di-|ce- tur ho-|
 cB B3 A/G/ A2 | B2 d2 d2 c2 | d2 B2 c4 | z2 B2 B2 A2 | B2 G2 A2 A2 | B4 G2 A2- | AG G4 F2 | %71
w: |mo qui ti- met|Do- mi- num,|qui ti- met|Do- mi- num, qui|ti- met Do-|* * * mi-|
 G2 d2 d2 c2 | d2 B2 c4 | z2 B2 B2 A2 | B2 G2 A2 A2 | B4 G2 A2- | AG G4 F2 | G2 G4 G2 | B4 B2 B2- | %79
w: num, qui ti- met|Do- mi- num,|qui ti- met|Do- mi- num, qui|ti- met Do-|* * * mi-|num. Be- ne|di- cat ti-|
 BA/G/ A2 B4 | B6 B2 | A2 G2 F3 E | D4 E4 |[M:3/2] E4 ^F6 F2 | G4 G4 B4 | B4 A4 G4 | %86
w: * * * * bi|Do- mi-|nus exSy- * *|* on,|et vi- de-|as bo- na|Ie- ru- sa-|
[M:2/2] ^F4 G4- | G2 ^F2 G2 B2 | A4 D2 d2- | d2 ^c2 d4 | A2 A4 d2- | dc B2 c3 B | A2 B3 B G2 | %93
w: lem o-|* mni- bus di-|e- bus vi-|* tae tu-|ae, et vi-|* de- as fi- li-|os fi- li- o-|
 c2 B2 AG G2- | GF/E/ F2 G2 G2 | d3 c B2 c2- | cB A2 B3 B | B4 A2 A2 | G4 ^F4 | G6 G2 | G4 G2 G2- | %101
w: rum tu- o- * *|* * * * rum, et|vi- de- as fi-|* li- os fi- li-|o- rum tu-|o- rum|pa- cem|su- per Is-|
 G2 FE F2 F2 | G2 G4 d2- | dc B2 c3 B | A2 B3 B G2 | c2 B2 AG G2- | GF/E/ F2 G2 G2 | d3 c B2 c2- | %108
w: * * * * ra-|el, et vi-|* de- as fi- li-|os fi- li- o-|rum tu- o- * *|* * * * rum, et|vi- de- as fi-|
 cB A2 B3 B | B4 A2 G2 | G4 ^F4 | G6 G2 | G4 G2 G2- |"^#""^#" G2 FE F2 F2 | G8 |] %115
w: * li- os fi- li-|o- rum tu-|o- rum|pa- cem|su- per Is-|* * * * ra-|el.|
V:4
 z8 | G,8 | C,4 C,4 | D,8 | G,,4 G,,4 | D,6 C,2 | B,,6 B,,2 | A,,4 D,4 | _E,2 E,2 D,4 | %9
w: |Be-|a- ti|o-|mnes qui|ti- ment|Do- mi-|num, qui|am- bu- lant|
 z2 G,,2 C,2 C,2 |"^b" D,3 E, F,4 | B,,4 B,,4 | C,4 D,2 _E,2- | E,2 D,2 _E,2 G,2 | F,4 B,,2 B,,2 | %15
w: in vi- is|e- * *|jus, lz-|bo- res ma-|* nu- um tu-|a- rum, la-|
 C,4 D,4 | _E,3 D, C,2 D,2 | _E,2 E,2 D,4 | G,,8 | z8 | z4 D,4 | D,4 B,,4- | B,,2 B,,2 F,4- | %23
w: bo- res|ma- * * nu-|am tu- a-|rum,||Qui-|a man-|* du- cat|
 F,4 B,,4 | D,8 | _E,6 E,2 | D,4 z2 D,2 | G,3 F, _E,2 D,2 | C,2 C,2 D,4 | G,,4 z2 G,,2 | %30
w: _ bis.|Be-|a- tus|es, et|be- * * ne|ti- bi e-|rit, et|
 G,,2 A,,2 C,2 D,2 | A,,4 D,4 | z2 B,,2 C,2 D,2 | G,,4 z4 | D,4 D,2 D,2 | B,,2 C,2 D,3 E, | %36
w: be- ne ti- bi|e- rit,|u- xor tu-|a|sic- ut vi-|tis a- bun- *|
"^b""^b" F,2 E,D, E,4 | D,4 z2 G,2- | G,2 G,2 G,2 F,2 | D,2 E,2 F,2 B,,C, | D,E,F,G, A,F, B,2 | %41
w: |dans, in|_ la te- ri-|bus do- mus tu _|_ _ _ _ _ _ _|
 A,4 z2 G,2 | G,2 F,2 G,4 | D,4 G,,4 | G,,2 D,2 _E,4 | D,4 G,,4 | G,,2 D,2 B,,3 G,, | %47
w: ae, fi-|li- i tu-|i, fi-|li- i tu-|i, fi-|li- i tu- *|
 D,4 G,,2 G,2 | G,2 G,2 C,4 | D,4 D,4- | D,2 C,2 B,,4- | B,,4 A,,4 | D,6 D,2 | C,3 C, G,,2 G,2- | %54
w: * i, sic-|ut no- vel-|le o-|* li- va-|* rum,|in cir-|cu- i- tu men|
 G,2 F,2 G,4 | D,4 G,,3 A,, | B,,2 D,2 G,,4 | D,8 |] z8 | D,8 | G,,4 z2 G,2- | G,2 F,E, F,4 | %62
w: _ se tu-|ae, men- *|* se tu-|ae,||Ec|ce, ec|_ _ _ _|
 G,4 G,4- | G,2 D,2 F,2 C,2 | D,2 B,,2 F,4 | B,,2 B,2 B,2 A,2 | B,2 G,2 F,4 | z2 G,2 G,2 F,2 | %68
w: ce sic-|* be- ne di-|ce- tur ho-|mo qui ti- met|Do- mi- num,|qui ti- met|
 G,2 _E,2 D,4 | z2 G,2 G,2 F,2 | G,2 _E,2 D,4 | z2 B,2 B,2 A,2 | B,2 G,2 F,4 | z2 G,2 G,2 F,2 | %74
w: Do- mi- num,|qui ti- met|Do- mi- num,|qui ti- met|Do- mi- num,|qui ti- met|
 G,2 _E,2 D,4 | z2 G,2 G,2 F,2 | G,2 _E,2 D,4 | z4 _E,4- | E,2 _E,2 B,,2 B,,2 | F,4 B,,4 | %80
w: Do- mi- num,|qui ti- met|Do- mi- num,|be-|* ne di- cat|ti- bi|
 B,,6 B,,2 | F,2 C,2 D,3 C, | B,,4 A,,4 |[M:3/2] A,,4 D,6 D,2 | G,,4 C,4 B,,4 | B,,4 F,4 C,4 | %86
w: Do- mi-|nus ex Sy- *|* on,|et vi- de-|as bo- na|Ie- ru- sa-|
[M:2/2] D,4 z4 | z8 | z8 | z8 | z4 D,4 | G,3 F, E,2 F,2- | F,E, D,2 _E,3 E, | _E,4 C,2 C,2 | %94
w: lem||||et|vi- de- as fi-|* li- os fi- li-|o- rum tu-|
 D,4 G,,2 G,,2- | G,,2 G,3 F, E,2 | F,3 E, D,2 _E,2- | E,_E, B,,2 F,2 F,2 | C,4 D,4 | %99
w: o- rum, et|_ vi- de- as|fi- li- os fi-|* li- o- rum tu-|o- rum|
 z2 G,,4 G,,2 | C,4 _E,4 | D,6 D,2 | G,,4 G,,4 | G,3 F, E,2 F,2- | F,E, D,2 _E,3 E, | %105
w: pa- cem|su- per|Is- ra-|el, et|vi- de- as fi-|* li- os fi- li-|
 _E,4 C,2 C,2 | D,4 G,,2 G,,2- | G,,2 G,3 F, E,2 | F,3 E, D,2 _E,2- | E,_E, B,,2 F,2 F,2 | %110
w: o- rum tu-|o- rum, et|_ vi- de- as|fi- li- os fi-|* li- o- rum tu-|
 C,4 D,4 | z2 G,,4 G,,2 | C,4 _E,4 | D,6 D,2 | G,,8 |] %115
w: o- rum|pa- cem|su- per|Is- ra-|el.|

